X:31
T: Sose loptam életembe
O: Bogdánfalva (Bákó), 1932
Q: "Majdnem guisto" 1/4=82
L:1/4
K:G
(3:2:2 A/A G/G/ | A/A/ G | D/ z/ z/ z// |
G/G/A/A/ | B/c/ B A3/2 z z// | 
A/A/G/F/ | G<A | =E D/ z/ z/ |
 
